src/sponsor_logos/fox.svg

<svg xmlns="http://www.w3.org/2000/svg" xml:space="preserve" style="fill-rule:evenodd;clip-rule:evenodd;stroke-linejoin:round;stroke-miterlimit:2" viewBox="0 0 345 256"><path d="M284.979 255.579c1.396-32.404-29.983-26.833-70.821-25.146-47.216 1.98-101.908-13.637-121.925-73.904-6.158-18.329-6.012-40.104-1.541-59.383-3.592-8.654-5.425-18.258-5.425-28.742a68.4 68.4 0 0 1 2.345-17.816H68.113V35.925H46.704v22.583h28.667v28.3H46.704v24.046h12.463v26.321H0v-26.321h13.196V35.925H0V9.75h98.025v19.063a71.5 71.5 0 0 1 7.917-9.163C119.358 6.6 136.221 0 155.579 0c18.4 0 35.192 6.746 48.388 19.796 13.858 13.417 21.116 30.646 21.116 48.975 0 19.283-6.891 36.512-19.725 49.783-2.491 2.567-5.204 4.913-7.991 7.038.883 7.112 4.254 11.508 11.366 15.616 24.925 14.738 47.217 2.492 75.15 15.909 38.563 18.55 39.371 80.283 1.096 98.462m8.579-16.933c-10.629-38.638-96.483-1.613-116.646-34.458 26.617 7.183 53.155 2.933 79.771 4.47.88-18.55-40.254-11.508-51.762-24.929 22.141 3.742 44.871-.217 67.304 1.617-3.371-19.283-39.446-8.213-53.963-29.108 16.205 4.837 29.696 5.937 44.796 6.745 25.221 1.321 39.742 20.675 41.646 40.546 1.1 12.242-3.958 25.292-11.146 35.117m-129.329-25.663c-35.117-10.408-62.392-48.754-64.446-83.725-1.537-24.562 6.234-57.262 20.675-72.729 25.588-27.421 62.834-23.171 68.7.95 3.813 15.471-1.246 34.829-2.787 51.984-1.392 14.883 2.2 30.133 17.375 41.129 5.208 11.291 11.658 21.704 24.487 25.516-14.808.584-29.179-1.979-43.329-6.6 7.038 16.567 21.263 27.642 46.117 30.721-28.079 3.517-53.742-2.496-78.083-13.271 1.762 9.825 4.62 17.817 11.291 26.025M262.4 111l16.642-17.742L295.1 111h-7.917v26.175h56.892V111h-10.117l-34.9-38.487 34.679-36.588h9.092V9.75h-56.896v26.175h7.992l-14.296 14.663-13.271-14.663h7.7V9.75h-56.896v26.175h9.092l33.359 36L222.517 111h-9.313v26.175H270.1V111z" style="fill:#f60"/></svg>

<?xml version="1.0" encoding="UTF-8" standalone="no"?>
<!DOCTYPE svg PUBLIC "-//W3C//DTD SVG 1.1//EN" "http://www.w3.org/Graphics/SVG/1.1/DTD/svg11.dtd">
<svg width="100%" height="100%" viewBox="0 0 345 256" version="1.1" xmlns="http://www.w3.org/2000/svg" xmlns:xlink="http://www.w3.org/1999/xlink" xml:space="preserve" xmlns:serif="http://www.serif.com/" style="fill-rule:evenodd;clip-rule:evenodd;stroke-linejoin:round;stroke-miterlimit:2;">
    <path d="M284.979,255.579C286.375,223.175 254.996,228.746 214.158,230.433C166.942,232.413 112.25,216.796 92.233,156.529C86.075,138.2 86.221,116.425 90.692,97.146C87.1,88.492 85.267,78.888 85.267,68.404C85.267,62.246 86.075,56.308 87.612,50.588L68.113,50.588L68.113,35.925L46.704,35.925L46.704,58.508L75.371,58.508L75.371,86.808L46.704,86.808L46.704,110.854L59.167,110.854L59.167,137.175L0,137.175L0,110.854L13.196,110.854L13.196,35.925L0,35.925L0,9.75L98.025,9.75L98.025,28.813C100.371,25.588 103.008,22.508 105.942,19.65C119.358,6.6 136.221,0 155.579,0C173.979,0 190.771,6.746 203.967,19.796C217.825,33.213 225.083,50.442 225.083,68.771C225.083,88.054 218.192,105.283 205.358,118.554C202.867,121.121 200.154,123.467 197.367,125.592C198.25,132.704 201.621,137.1 208.733,141.208C233.658,155.946 255.95,143.7 283.883,157.117C322.446,175.667 323.254,237.4 284.979,255.579ZM293.558,238.646C282.929,200.008 197.075,237.033 176.912,204.188C203.529,211.371 230.067,207.121 256.683,208.658C257.563,190.108 216.429,197.15 204.921,183.729C227.062,187.471 249.792,183.512 272.225,185.346C268.854,166.063 232.779,177.133 218.262,156.238C234.467,161.075 247.958,162.175 263.058,162.983C288.279,164.304 302.8,183.658 304.704,203.529C305.804,215.771 300.746,228.821 293.558,238.646ZM164.229,212.983C129.112,202.575 101.837,164.229 99.783,129.258C98.246,104.696 106.017,71.996 120.458,56.529C146.046,29.108 183.292,33.358 189.158,57.479C192.971,72.95 187.912,92.308 186.371,109.463C184.979,124.346 188.571,139.596 203.746,150.592C208.954,161.883 215.404,172.296 228.233,176.108C213.425,176.692 199.054,174.129 184.904,169.508C191.942,186.075 206.167,197.15 231.021,200.229C202.942,203.746 177.279,197.733 152.938,186.958C154.7,196.783 157.558,204.775 164.229,212.983ZM262.4,111L279.042,93.258L295.1,111L287.183,111L287.183,137.175L344.075,137.175L344.075,111L333.958,111L299.058,72.513L333.737,35.925L342.829,35.925L342.829,9.75L285.933,9.75L285.933,35.925L293.925,35.925L279.629,50.588L266.358,35.925L274.058,35.925L274.058,9.75L217.162,9.75L217.162,35.925L226.254,35.925L259.613,71.925L222.517,111L213.204,111L213.204,137.175L270.1,137.175L270.1,111L262.4,111Z" style="fill:rgb(255,102,0);"/>
</svg>
